build/svg/cmd/sc_spellonline.svg

<?xml version="1.0" encoding="UTF-8" standalone="no"?>
<svg
   xmlns:dc="http://purl.org/dc/elements/1.1/"
   xmlns:cc="http://creativecommons.org/ns#"
   xmlns:rdf="http://www.w3.org/1999/02/22-rdf-syntax-ns#"
   xmlns:svg="http://www.w3.org/2000/svg"
   xmlns="http://www.w3.org/2000/svg"
   xmlns:sodipodi="http://sodipodi.sourceforge.net/DTD/sodipodi-0.dtd"
   xmlns:inkscape="http://www.inkscape.org/namespaces/inkscape"
   viewBox="0 0 16 16"
   version="1.1"
   id="svg6"
   sodipodi:docname="sc_spellonline.svg"
   inkscape:version="0.92.5 (2060ec1f9f, 2020-04-08)"
   inkscape:export-filename="/home/jupiter007/Libreoffice yaru theme fullcolor/build/cmd/sc_spellonline.png"
   inkscape:export-xdpi="96"
   inkscape:export-ydpi="96">
  <metadata
     id="metadata12">
    <rdf:RDF>
      <cc:Work
         rdf:about="">
        <dc:format>image/svg+xml</dc:format>
        <dc:type
           rdf:resource="http://purl.org/dc/dcmitype/StillImage" />
      </cc:Work>
    </rdf:RDF>
  </metadata>
  <defs
     id="defs10" />
  <sodipodi:namedview
     pagecolor="#ffffff"
     bordercolor="#666666"
     borderopacity="1"
     objecttolerance="10"
     gridtolerance="10"
     guidetolerance="10"
     inkscape:pageopacity="0"
     inkscape:pageshadow="2"
     inkscape:window-width="1920"
     inkscape:window-height="1011"
     id="namedview8"
     showgrid="true"
     inkscape:zoom="29.5"
     inkscape:cx="-3.22374"
     inkscape:cy="5.9172709"
     inkscape:window-x="0"
     inkscape:window-y="32"
     inkscape:window-maximized="1"
     inkscape:current-layer="svg6">
    <inkscape:grid
       type="xygrid"
       id="grid822" />
  </sodipodi:namedview>
  <path
     sodipodi:nodetypes="csssscssssssscssssssccsssscssssssscsssssscc"
     inkscape:connector-curvature="0"
     id="path815"
     d="m 4,15 c 0.416667,0 0.7662926,-0.237521 0.9785156,-0.492188 0.212222,-0.254666 0.34375,-0.535156 0.46875,-0.785156 0.125,-0.25 0.243472,-0.46951 0.34375,-0.589844 C 5.8912926,13.012479 5.916667,13 6,13 c 0.08333,0 0.108707,0.01248 0.208984,0.132812 0.100278,0.120334 0.21875,0.339844 0.34375,0.589844 0.125,0.25 0.256528,0.53049 0.46875,0.785156 C 7.233707,14.762479 7.583333,15 8,15 c 0.4166673,0 0.7662933,-0.237521 0.9785163,-0.492188 0.212222,-0.254666 0.34375,-0.535156 0.4687502,-0.785156 0.125,-0.25 0.243472,-0.46951 0.34375,-0.589844 C 9.8912935,13.012479 9.9166675,13 9.9999995,13 c 0.083331,0 0.1087075,0.01248 0.2089835,0.132812 0.100278,0.120334 0.21875,0.339844 0.34375,0.589844 0.125,0.25 0.256528,0.53049 0.468751,0.785156 C 11.233708,14.762479 11.583334,15 12.000001,15 c 0.416667,0 0.766293,-0.237521 0.978516,-0.492188 0.212222,-0.254666 0.34375,-0.535156 0.46875,-0.785156 0.125,-0.25 0.243472,-0.46951 0.34375,-0.589844 C 13.891294,13.012479 13.916668,13 14.000001,13 v -1 c -0.416667,0 -0.766293,0.237521 -0.978516,0.492188 -0.212223,0.254666 -0.34375,0.535156 -0.46875,0.785156 -0.125,0.25 -0.243473,0.46951 -0.34375,0.589844 C 12.108708,13.987521 12.083334,14 12.000001,14 c -0.08333,0 -0.108707,-0.01248 -0.208984,-0.132812 -0.100278,-0.120334 -0.21875,-0.339844 -0.34375,-0.589844 -0.125,-0.25 -0.256528,-0.53049 -0.468751,-0.785156 C 10.766293,12.237521 10.416667,12 9.9999995,12 c -0.416666,0 -0.7662922,0.237521 -0.9785152,0.492188 -0.212222,0.254666 -0.34375,0.535156 -0.46875,0.785156 -0.125,0.25 -0.243472,0.46951 -0.34375,0.589844 C 8.1087073,13.987521 8.0833333,14 8,14 7.91667,14 7.891293,13.98752 7.791016,13.867188 7.690738,13.746854 7.572266,13.527344 7.447266,13.277344 c -0.125,-0.25 -0.256528,-0.53049 -0.46875,-0.785156 C 6.766293,12.237521 6.416667,12 6,12 c -0.416667,0 -0.7662926,0.237521 -0.9785156,0.492188 -0.212222,0.254666 -0.34375,0.535156 -0.46875,0.785156 -0.125,0.25 -0.243472,0.46951 -0.34375,0.589844 C 4.1087074,13.987521 4.083333,14 4,14 Z"
     style="color:#000000;font-style:normal;font-variant:normal;font-weight:normal;font-stretch:normal;font-size:medium;line-height:normal;font-family:sans-serif;font-variant-ligatures:normal;font-variant-position:normal;font-variant-caps:normal;font-variant-numeric:normal;font-variant-alternates:normal;font-feature-settings:normal;text-indent:0;text-align:start;text-decoration:none;text-decoration-line:none;text-decoration-style:solid;text-decoration-color:#000000;letter-spacing:normal;word-spacing:normal;text-transform:none;writing-mode:lr-tb;direction:ltr;text-orientation:mixed;dominant-baseline:auto;baseline-shift:baseline;text-anchor:start;white-space:normal;shape-padding:0;clip-rule:nonzero;display:inline;overflow:visible;visibility:visible;opacity:0.8;isolation:auto;mix-blend-mode:normal;color-interpolation:sRGB;color-interpolation-filters:linearRGB;solid-color:#000000;solid-opacity:1;vector-effect:none;fill:#ffffff;fill-opacity:1;fill-rule:nonzero;stroke:#ffffff;stroke-width:2;stroke-linecap:butt;stroke-linejoin:round;stroke-miterlimit:4;stroke-dasharray:none;stroke-dashoffset:0;stroke-opacity:1;color-rendering:auto;image-rendering:auto;shape-rendering:auto;text-rendering:auto;enable-background:accumulate" />
  <path
     style="color:#000000;font-style:normal;font-variant:normal;font-weight:normal;font-stretch:normal;font-size:medium;line-height:normal;font-family:sans-serif;font-variant-ligatures:normal;font-variant-position:normal;font-variant-caps:normal;font-variant-numeric:normal;font-variant-alternates:normal;font-feature-settings:normal;text-indent:0;text-align:start;text-decoration:none;text-decoration-line:none;text-decoration-style:solid;text-decoration-color:#000000;letter-spacing:normal;word-spacing:normal;text-transform:none;writing-mode:lr-tb;direction:ltr;text-orientation:mixed;dominant-baseline:auto;baseline-shift:baseline;text-anchor:start;white-space:normal;shape-padding:0;clip-rule:nonzero;display:inline;overflow:visible;visibility:visible;opacity:1;isolation:auto;mix-blend-mode:normal;color-interpolation:sRGB;color-interpolation-filters:linearRGB;solid-color:#000000;solid-opacity:1;vector-effect:none;fill:#c7162b;fill-opacity:1;fill-rule:nonzero;stroke:none;stroke-width:1px;stroke-linecap:butt;stroke-linejoin:miter;stroke-miterlimit:4;stroke-dasharray:none;stroke-dashoffset:0;stroke-opacity:1;color-rendering:auto;image-rendering:auto;shape-rendering:auto;text-rendering:auto;enable-background:accumulate"
     d="m 4,15 c 0.416667,0 0.7662926,-0.237521 0.9785156,-0.492188 0.212222,-0.254666 0.34375,-0.535156 0.46875,-0.785156 0.125,-0.25 0.243472,-0.46951 0.34375,-0.589844 C 5.8912926,13.012479 5.916667,13 6,13 c 0.08333,0 0.108707,0.01248 0.208984,0.132812 0.100278,0.120334 0.21875,0.339844 0.34375,0.589844 0.125,0.25 0.256528,0.53049 0.46875,0.785156 C 7.233707,14.762479 7.583333,15 8,15 c 0.4166673,0 0.7662933,-0.237521 0.9785163,-0.492188 0.212222,-0.254666 0.34375,-0.535156 0.4687502,-0.785156 0.125,-0.25 0.243472,-0.46951 0.34375,-0.589844 C 9.8912935,13.012479 9.9166675,13 9.9999995,13 c 0.083331,0 0.1087075,0.01248 0.2089835,0.132812 0.100278,0.120334 0.21875,0.339844 0.34375,0.589844 0.125,0.25 0.256528,0.53049 0.468751,0.785156 C 11.233708,14.762479 11.583334,15 12.000001,15 c 0.416667,0 0.766293,-0.237521 0.978516,-0.492188 0.212222,-0.254666 0.34375,-0.535156 0.46875,-0.785156 0.125,-0.25 0.243472,-0.46951 0.34375,-0.589844 C 13.891294,13.012479 13.916668,13 14.000001,13 v -1 c -0.416667,0 -0.766293,0.237521 -0.978516,0.492188 -0.212223,0.254666 -0.34375,0.535156 -0.46875,0.785156 -0.125,0.25 -0.243473,0.46951 -0.34375,0.589844 C 12.108708,13.987521 12.083334,14 12.000001,14 c -0.08333,0 -0.108707,-0.01248 -0.208984,-0.132812 -0.100278,-0.120334 -0.21875,-0.339844 -0.34375,-0.589844 -0.125,-0.25 -0.256528,-0.53049 -0.468751,-0.785156 C 10.766293,12.237521 10.416667,12 9.9999995,12 c -0.416666,0 -0.7662922,0.237521 -0.9785152,0.492188 -0.212222,0.254666 -0.34375,0.535156 -0.46875,0.785156 -0.125,0.25 -0.243472,0.46951 -0.34375,0.589844 C 8.1087073,13.987521 8.0833333,14 8,14 7.91667,14 7.891293,13.98752 7.791016,13.867188 7.690738,13.746854 7.572266,13.527344 7.447266,13.277344 c -0.125,-0.25 -0.256528,-0.53049 -0.46875,-0.785156 C 6.766293,12.237521 6.416667,12 6,12 c -0.416667,0 -0.7662926,0.237521 -0.9785156,0.492188 -0.212222,0.254666 -0.34375,0.535156 -0.46875,0.785156 -0.125,0.25 -0.243472,0.46951 -0.34375,0.589844 C 4.1087074,13.987521 4.083333,14 4,14 Z"
     id="path824"
     inkscape:connector-curvature="0"
     sodipodi:nodetypes="csssscssssssscssssssccsssscssssssscsssssscc" />
  <path
     id="path819-6"
     d="M 5.3827651,1 0.99995253,12.000013 H 3.3573743 L 4.5468277,9.0000125 h 4.9277344 l 0.3847657,0.999987 H 12.226515 L 8.7479997,1 Z M 7.0624525,2.328126 8.7284682,7 H 5.3144059 Z"
     style="opacity:0.6;fill:#000000;fill-opacity:1;stroke:#000000;stroke-width:2;stroke-linejoin:round;stroke-miterlimit:4;stroke-dasharray:none"
     inkscape:connector-curvature="0" />
  <path
     style="fill:#ffffff;fill-opacity:1;stroke-width:1"
     d="M 5.3827651,1 0.99995253,12.000013 H 3.3573743 L 4.5468277,9.0000125 h 4.9277344 l 0.3847657,0.999987 H 12.226515 L 8.7479997,1 Z M 7.0624525,2.328126 8.7284682,7 H 5.3144059 Z"
     id="path4-3-7"
     inkscape:connector-curvature="0" />
</svg>

<svg xmlns="http://www.w3.org/2000/svg" viewBox="0 0 16 16"><path d="M4 15c.417 0 .766-.238.979-.492.212-.255.343-.535.468-.785s.244-.47.344-.59c.1-.12.126-.133.209-.133.083 0 .109.012.209.133.1.12.219.34.344.59.125.25.256.53.468.785.213.254.562.492.979.492.417 0 .766-.238.979-.492.212-.255.343-.535.468-.785s.244-.47.344-.59c.1-.12.126-.133.209-.133.083 0 .109.012.209.133.1.12.219.34.344.59.125.25.256.53.468.785.213.254.562.492.979.492.417 0 .766-.238.979-.492.212-.255.343-.535.468-.785s.244-.47.344-.59c.1-.12.126-.133.209-.133v-1c-.417 0-.766.238-.979.492-.212.255-.343.535-.468.785s-.244.47-.344.59c-.1.12-.126.133-.209.133-.083 0-.109-.012-.209-.133-.1-.12-.219-.34-.344-.59-.125-.25-.256-.53-.468-.785-.213-.254-.562-.492-.979-.492-.417 0-.766.238-.979.492-.212.255-.343.535-.468.785s-.244.47-.344.59c-.1.12-.126.133-.209.133-.083 0-.109-.012-.209-.133-.1-.12-.219-.34-.344-.59-.125-.25-.256-.53-.468-.785C6.766 12.238 6.417 12 6 12c-.417 0-.766.238-.979.492-.212.255-.343.535-.468.785s-.244.47-.344.59c-.1.12-.126.133-.209.133z" style="line-height:normal;font-variant-ligatures:normal;font-variant-position:normal;font-variant-caps:normal;font-variant-numeric:normal;font-variant-alternates:normal;font-feature-settings:normal;text-indent:0;text-align:start;text-decoration-line:none;text-decoration-style:solid;text-decoration-color:#000;text-transform:none;text-orientation:mixed;white-space:normal;shape-padding:0;isolation:auto;mix-blend-mode:normal;solid-color:#000;solid-opacity:1" color="#000" font-weight="400" font-family="sans-serif" overflow="visible" opacity=".8" fill="#fff" stroke="#fff" stroke-width="2" stroke-linejoin="round"/><path style="line-height:normal;font-variant-ligatures:normal;font-variant-position:normal;font-variant-caps:normal;font-variant-numeric:normal;font-variant-alternates:normal;font-feature-settings:normal;text-indent:0;text-align:start;text-decoration-line:none;text-decoration-style:solid;text-decoration-color:#000;text-transform:none;text-orientation:mixed;white-space:normal;shape-padding:0;isolation:auto;mix-blend-mode:normal;solid-color:#000;solid-opacity:1" d="M4 15c.417 0 .766-.238.979-.492.212-.255.343-.535.468-.785s.244-.47.344-.59c.1-.12.126-.133.209-.133.083 0 .109.012.209.133.1.12.219.34.344.59.125.25.256.53.468.785.213.254.562.492.979.492.417 0 .766-.238.979-.492.212-.255.343-.535.468-.785s.244-.47.344-.59c.1-.12.126-.133.209-.133.083 0 .109.012.209.133.1.12.219.34.344.59.125.25.256.53.468.785.213.254.562.492.979.492.417 0 .766-.238.979-.492.212-.255.343-.535.468-.785s.244-.47.344-.59c.1-.12.126-.133.209-.133v-1c-.417 0-.766.238-.979.492-.212.255-.343.535-.468.785s-.244.47-.344.59c-.1.12-.126.133-.209.133-.083 0-.109-.012-.209-.133-.1-.12-.219-.34-.344-.59-.125-.25-.256-.53-.468-.785-.213-.254-.562-.492-.979-.492-.417 0-.766.238-.979.492-.212.255-.343.535-.468.785s-.244.47-.344.59c-.1.12-.126.133-.209.133-.083 0-.109-.012-.209-.133-.1-.12-.219-.34-.344-.59-.125-.25-.256-.53-.468-.785C6.766 12.238 6.417 12 6 12c-.417 0-.766.238-.979.492-.212.255-.343.535-.468.785s-.244.47-.344.59c-.1.12-.126.133-.209.133z" color="#000" font-weight="400" font-family="sans-serif" overflow="visible" fill="#c7162b"/><path d="M5.383 1L1 12h2.357l1.19-3h4.928l.384 1h2.368L8.748 1zm1.68 1.328L8.727 7H5.314z" opacity=".6" stroke="#000" stroke-width="2" stroke-linejoin="round"/><path d="M5.383 1L1 12h2.357l1.19-3h4.928l.384 1h2.368L8.748 1zm1.68 1.328L8.727 7H5.314z" fill="#fff"/></svg>
